icons/store.svg

<svg width="24" height="24" viewBox="0 0 24 24" fill="none" xmlns="http://www.w3.org/2000/svg">
<path fill-rule="evenodd" clip-rule="evenodd" d="M2 3C2 2.44772 2.44772 2 3 2H21C21.5523 2 22 2.44772 22 3V9C22 10.0144 21.6215 10.9413 21 11.6458V21C21 21.5523 20.5523 22 20 22H4C3.44772 22 3 21.5523 3 21V11.6458C2.37852 10.9413 2 10.0144 2 9V3ZM5 12.8738V20H19V12.8738C18.6802 12.9561 18.3451 13 18 13C16.8053 13 15.7329 12.4762 15 11.6458C14.2671 12.4762 13.1947 13 12 13C10.8053 13 9.73295 12.4762 9 11.6458C8.26706 12.4762 7.19469 13 6 13C5.65489 13 5.31975 12.9561 5 12.8738ZM10 9C10 10.1046 10.8954 11 12 11C13.1046 11 14 10.1046 14 9C14 8.44772 14.4477 8 15 8C15.5523 8 16 8.44772 16 9C16 10.1046 16.8954 11 18 11C18.5129 11 18.9786 10.8083 19.3331 10.491C19.7438 10.1233 20 9.59224 20 9V4H4V9C4 9.59224 4.25615 10.1233 4.66691 10.491C5.02142 10.8083 5.48712 11 6 11C7.10457 11 8 10.1046 8 9C8 8.44772 8.44772 8 9 8C9.55228 8 10 8.44772 10 9Z" fill="black"/>
</svg>

<svg
  width="24"
  height="24"
  viewBox="0 0 24 24"
  xmlns="http://www.w3.org/2000/svg"
>
  <path
    fill-rule="evenodd"
    clip-rule="evenodd"
    d="M2 3a1 1 0 0 1 1-1h18a1 1 0 0 1 1 1v6a3.988 3.988 0 0 1-1 2.646V21a1 1 0 0 1-1 1H4a1 1 0 0 1-1-1v-9.354A3.988 3.988 0 0 1 2 9V3zm3 9.874V20h14v-7.126a4.008 4.008 0 0 1-4-1.228A3.99 3.99 0 0 1 12 13a3.99 3.99 0 0 1-3-1.354 3.99 3.99 0 0 1-4 1.228zM10 9a2 2 0 1 0 4 0 1 1 0 1 1 2 0 2 2 0 1 0 4 0V4H4v5c0 .592.256 1.123.667 1.491A2 2 0 0 0 8 9a1 1 0 0 1 2 0z"
  />
</svg>
